X:1
T:The Summer Knows
T:The Summer Knows
C:Michel LeGrand
Z:All Rights Reserved
L:1/8
M:4/4
K:Ab
V:1 treble nm="Piano" snm="Pno."
%%MIDI program 0
V:1
 z4 z3 C |:"Fm" GA F4- FC |"Fm/E" GA B4 z C |"Fm/Eb" GA F4- FC |"Dm7b5" GA c4 z F | %5
w: The|sum- mer smiles, _ the|sum- mer knows An|un- a- shamed _ she|sheds her clothes. The|
"Bbm" cd B4- BF |"Bbm/A" cd e4 z F |"Bbm/Ab" (3cdB- BF"Gm7b5" (3cdB- BF | %8
w: sum- mer smooths _ the|rest- less sky, And|lov- ing- ly _ she warms the sand _ on|
"Csus4" (3ABG- G4"C7b9" z C |[K:F]"F" G=A F4- FC |"Bbm6/F" GA B4 z C |"F" GA F4- FC | %12
w: which you lie. _ The|sum- mer knows, _ the|sum- mer's wise, she|sees the doubts _ with-|
"Cm7/F" GA c4 z F |"Bbmaj7" cd"Bb6" B4- BF |"Dm6" cd f4"E7b9" ed |"Amaj7" ^c2 E2"E7b9" =F2 ed | %16
w: in your eyes, and|so she takes _ her|sum- mer time. Tells the|moon to wait and the|
"Amaj7" ^c2 E2"Eb7b9" _e2 _d2 |"Abmaj7" =c2 _E2"Eb7b9" _F2 _e_d |"Abmaj7" c2 _E2"D7b9" =d2 c2 | %19
w: sun to ling- er.|Twists the world 'round her|sum- mer fing- er.|
"G" c2 =B2 A2 G2 |"Gm7b5" c_BAG !fermata!_D2 z C |"F/C" GA F4- FC |"Gm7b5/C" GA B4 z F | %23
w: Lets you see the|won- der of it all. And|if you've learned _ your|les- son well. There's|
"F/C" Bc A4- AF |"Bbm6/C" Bc _d4 z C |[K:Ab]"Fm/C" G_A F4-"Fdim/C" FC |"Gm7b5" GA F4 F2 |1 %27
w: lit- tle more _ for|her to tell. One|last ca- ress _ it's|time to dress for|
"Fm" F8- || F6 z C :|2"Fm" F8- || F6 z2 |] %31
w: fall.|_ The|fall.|_|

